X:1
T:Vissi d'arte, vissi d'amore
T:Vissi d'arte, vissi d'amore (Tosca)
T:Giacomo Puccini
T:by IMSLP - Scritto con MuseScore, un software libero e gratuito: http://musescore.org/it
T:by IMSLP - Scritto con MuseScore, un software libero e gratuito: http://musescore.org/it
T:by IMSLP - Scritto con MuseScore, un software libero e gratuito: http://musescore.org/it
T:by IMSLP - Scritto con MuseScore, un software libero e gratuito: http://musescore.org/it
T:by IMSLP - Scritto con MuseScore, un software libero e gratuito: http://musescore.org/it
C:Giacomo Puccini
Z:by IMSLP - Scritto con MuseScore, un software libero e gratuito: http://musescore.org/it
%%score ( 1 2 ) { ( 3 5 ) | ( 4 6 ) }
L:1/8
Q:1/4=40
M:2/4
K:F
V:1 treble nm="Voce"
V:2 treble 
V:3 treble nm="Piano"
V:5 treble 
V:4 bass 
V:6 bass 
V:1
"^Andante lento appassionato" z4 | !fermata!z4 ||!p!"^dolcissimo con grande sentimento" (d2 c2 | %3
w: ||Vis\- si|
 A2 G2) | (!>!d2 c3/2 A/ | A2 G2) | (B2 (3A A A | (3:2:2F2 F (3G F G | (3:2:2E2 E) z2 | (d2 =c>A | %10
w: d'ar\- te|vis\- si d'a\-|mo\- re,|non fe\- ci mai|ma\- lead a\- ni\- ma|vi\- va!|Con man fur\-|
 A2 G2) |"^poco allarg. con anima" !>!g2 !tenuto!f!tenuto!e | %12
w: ti\- va|quan\- te mi\-|
 (3!tenuto!g !tenuto!f !tenuto!e (3d c B | (3:2:2A2 A z2 | z4 ||[K:D][M:4/4] z8 | %16
w: se\- rie co\- nob\- bi,~a\- iu\-|ta\- i.|||
!p!"^con grande sentimento" (A2 (A2 (3A)) z A{/B} (3(AG) F | B2 B2 z (F F F | F2 F F F F F F | %19
w: Sem\- pre _ con fé _ sin\-|ce\- ra la mia pre\-|ghie\- ra ai san\- ti ta\- ber\-|
 G/ F/ E/ G/ !tenuto!B2) z (B B B |{/d} (3cB c A4 A2) |"^con anima" (d3 e!<(! (fd) (3:2:2e2 c!<)! | %22
w: na\- co\- li sa\- lì, Sem\- pre con|fé * sin\- ce\- ra|die\- di fio- * ria gl'al\-|
!f!!>(! (d4 d))!>)! z (3:2:2z2 (c | (3:2:2c2 c (3:2:2c2 c c2 (3:2:2!breath!c2) (c | %24
w: tar. _ Nel\-|l'o\- ra del do\- lo\- re per\-|
 (3:2:2e2 B (3:2:2B2 c B2 (3B) z (B | (3:2:2d2 A (3:2:2F2 G (3:2:2B2 A (3:2:2B2 D | A4- A) z z2 | %27
w: ché, per\- ché, Si\- gno\- re, per\-|ché me ne ri\- mu\- ne\- ri co\-|sì? *|
 z4 (A2 AA | A2 A2 (3AAA{/B} (3(AG) A | B2 B) z/ (B/ c2 d2 | c2 B) (F F F F F | %31
w: Die\- di gio\-|iel\- li del\- la Ma\- don- * naal|man\- to e die\- diil|can\- to a\- glia\- stri,~al ciel, che|
{/A} G/ F/ E/ G/ B B2- B) z (B | c/ c/ B/ !tenuto!c/ A4) (A2 | %33
w: ne ri\- dean più bel\- li. _ Nel\-|l'o\- ra del do\- lor per\-|
 !breath!d3)"^cresc. molto" (e (f d) (3:2:2(e2 c) | !breath!a4) (g4 | %35
w: ché, per\- ché, * Si- *|gnor, ah,|
 (f2)"^rall." (6:4:6!breath!f/) !tenuto!F/ !tenuto!G/ !tenuto!A/ !tenuto!G/ !tenuto!F/ (3:2:2e2 e !fermata!d z/ c/ | %36
w: * * per\- ché me ne ri\- mu\- ne\- ri co\-|
 d4 !fermata!z2 x2 |[M:3/4] z6 | z6 |] %39
w: sì?|||
V:2
 x4 | x4 || x4 | x4 | x4 | x4 | x4 | x4 | x2 z ^c | x4 | x4 | x4 | x4 | x4 | x4 ||[K:D][M:4/4] x8 | %16
 x8 | x8 | x8 | x8 | x8 | x8 | x8 | x8 | x8 | x8 | x8 | x8 | x2 A A A2 x2 | x8 | x8 | x8 | x8 | %33
 x8 | x8 | x8 | x4 z4 |[M:3/4] x6 | x6 |] %39
V:3
!ppp! A,4 | !fermata!A,4 ||!pp! ([FAd]2 [EGc]2 | [CEA]2 [B,DG]2) | ([FAd]2 [EGc]2 | %5
 [CEA]2 [B,DG]2) | ([DFB]2 [CEA]2 | [DF]2) (3(!tenuto!GF!tenuto!G | [^CE]2- [CE]) z | %9
 ([FAd]2 [EG=c]2 | [CEA]2!<(! [B,DG]2) | !tenuto![Bdg]2!<)! !tenuto![Acf]!tenuto![GBe] | %12
 (3!tenuto![Bdg]!tenuto![Acf]!tenuto![GBe]!>(! (3([FAd][EGc][DFB]) | %13
 [CEA]2!>)!!pp! (3(!tenuto!G!tenuto!F!tenuto!G | [^CE]2- [CE]) z || %15
[K:D][M:4/4]!pp!"^dolcissimo con grande sentimento"({DF)A} (d4 e2 e2 | e2 e2 A3 [B,B] | %17
({B,D)F} B4) (c2 d2 | c2 B2 f3 [Aa] |({EG)B} e3 f ga g>f |({Gc)} (f2 e2)) x2!pp! ([Acea]2 | %21
"_cresc.""^con anima"!<(! d3) e (fd) (3:2:2(e2 c)!<)! |!f!!>(! [DFAd]6- [DFAd]!>)! z | %23
!pp! [FAc]2 !tenuto![CFAc]2 !tenuto![CFAc]2- !tenuto![CFAc] z | %24
 !tenuto![GBe]2 !tenuto![B,EGB]2 !tenuto![B,EGB]2- !tenuto![B,EGB] z | %25
!<(! (3:2:2!arpeggio![DFAd]2 (A (3:2:2F2 G!<)!!>(!({A,D)} (3:2:2B2 A (3:2:2F2 D)!>)! | %26
!pp!!<(! !arpeggio![A,CEA]6-!<)!!>(! [A,CEA] z!>)! |"^dolcissimo \n"({DF)A} d4 e2 e2 | e2 e2 A3 B | %29
({B,D)F} B4 (c2 d2 | c2 B2 f3 [Aa] |({EG)B} e3 [Fg] [Gg][Aa] [Gg]>([Ff]) | %32
 [Ff]2!<(! [Ee]4) ([Aa]2!<)! | [dfbd']3 [ee']) ([fbd'f'][dd']) (3:2:2([eac'e']2 [ceac']) | %34
!f! [ad'a']2- (6:4:6[a-d'a']/[Aa]/[Bb]/[cc']/[Bb]/[Aa]/ [gbd'g']4 | %35
!pp! [fad'f']2- [fad'f'] z (3:2:2z2 !arpeggio![G,B,E] (3([E,G,][E,G,]) !fermata!z | %36
!pp! x2 !arpeggio!D !arpeggio![DF] !fermata!z x x2 |[M:3/4] z2"^r. h." [dfa]4- | [dfa]4- [dfa] z |] %39
V:4
 z4 | !fermata!z4 ||"^con molta dolcezza" z4 | z4 | z4 | z4 | (G,2 A,2 | B,2)!ppp! (E,2 | %8
 A,2-) A, z | z4 | z4 |"^poco allarg. con anima"!f! z4 | z4 | z2"^poco rall." (E,2 | %14
 (A,2)!pp! A,) z ||[K:D][M:4/4] (3z (A,,D, (3F,A,D) E2 F2 | E2 D2 (3z (A,F, (3D,A,,F,,) | %17
 (3z (D,F, (3B,DF) C2 D2 | C2 B,2 (3z (FD (3B,F,D,) | (3z B,,D, (3E,G,B, x4 | x2 x2 x2 (3A,G,E, | %21
 (3z (F,,B,, (3D,F,B,) (3(!arpeggio!DB,^G,) (3(!arpeggio!CA,=G,) | %22
 (3z (A,,D, (3F,A,D (3FDA, (3DA,F,) | (3z (C,F,) (3(A,F,C,) (3(CA,F,) (3(A,F,C,) | %24
 (3z (E,G,) (3(DG,E,) (3(DG,E,) (3(DG,E,) | %25
 (3z (F,A,) (3z (([F,A,][A,D])) (3z (A,D) (3z ([A,D][F,A,B,]) | %26
 (3z (E,,A,, (3C,E,A,) (3(CA,G, (3E,C,A,,) |!ppp! D,4 E,2 F,2 | E,2 D,2 x4 | (B,,4 B,,2 D,2 | %30
 C,2 B,,2) x4 | (3z E,G, (3B,G,B, (3EG,B, (3EG,B, | (3z G,A, (3CA,G, (3CA,G, (3E,C,A,, | %33
"^cresc, molto" (3z F,,B,, (3D,F,B, (3!arpeggio!DB,^G, ([A,,,A,,][=G,,,=G,,]) | %34
 (3z"^molto allarg." [F,A,D][A,DF] [DFA] z z!>(! [E,G,B,D][G,B,DE] x!>)! | %35
 (3z"^col canto" [F,A,D][A,DF] [DFA] z (3:2:2A,,, !>!A,,2- !fermata!A,,2 | %36
 !fermata!z [D,F,A,][F,A,] A, (([=C,E,G,]2 [C,_E,_A,]2)) | %37
[M:3/4]"^r. h."!ped! (3:2:2z"^l. h." [D,F,A,]2 [D,F,A,] z z2!ped-up! | z6 |] %39
V:5
 x4 | x4 || x4 | x4 | x4 | x4 | x4 | x2 [B,D]2 | x4 | x4 | x4 | x4 | x4 | x2 [B,D]2 | x4 || %15
[K:D][M:4/4] x4 (3eFA (3eAF | (3eFA (3eAF x4 | x4 (3cDF (3dFD | (3cFD (3BFD x4 | x8 | %20
 (3z GA (3cAG (3ECB, x2 | [DFB]4 [F^GB]2 [E=GB]2 | x8 | x8 | x8 | x8 | x8 | %27
 (3dDF (3AFA (3eFA (3eAF | %28
 (3eFA (3eFA[I:staff +1] (3A,,[I:staff -1][FA][DF] (3[A,D][I:staff +1][F,A,][D,B,] | %29
[I:staff -1] (3BDF (3BDF (3cDF (3dDF | %30
 (3cDF (3BDF[I:staff +1] (3F,[I:staff -1][Bd][FB] (3[DF][B,D][I:staff +1][^G,A,] | x8 | x8 | x8 | %34
 x6[I:staff -1] (3!arpeggio![B,DEG]!arpeggio![DEGB]!arpeggio![DGBd] | x8 | x8 | %37
[M:3/4] (3:2:2z2 [DFA]- [DFA]2- [DFA] z | x6 |] %39
V:6
 x4 | x4 || x4 | x4 | x4 | x4 | x4 | x4 | x2 A,, z | x4 | x4 | x4 | x4 | x4 | z2{/A,,,} A,,2 || %15
[K:D][M:4/4]{/D,,,} D,,8- | D,,4- D,, z z2 |{/D,,,} D,,8- | D,,4- D,,- z z2 |{/D,,,} D,,8- | %20
 D,,4- D,, z z2 | B,,,4 E,,2 A,,2 |{/D,,,} D,,6- D,, z |{/D,,,} F,,6- F,, z |{/F,,,} A,,6- A,, z | %25
{/F,,,} A,,4{/F,,,} F,,2{/D,,} A,,2 | [A,,,A,,]6- [A,,,A,,] z |{/D,,,} D,,8- | D,,4- D,, z z2 | %29
({D,,,D,,)} (D,,8 | D,,4-) D,, z z2 |{/D,,,} D,,8- | D,,4- D,, z z2 |{/B,,,,} B,,,4 E,,2 x2 | %34
 [F,,,F,,]4 [E,,,E,,]4 | [A,,,A,,]2- [A,,,A,,] z x4 | %36
{/!fermata!D,,,} !fermata!D,,4 (([=C,,E,,]2 [_A,,,_E,,]2)) |[M:3/4]{/D,,,} D,,4- D,, z | x6 |] %39

